resources/icons/20px/geotime.svg

<svg width="20" height="20" viewBox="0 0 20 20" fill="none" xmlns="http://www.w3.org/2000/svg">
<path fill-rule="evenodd" clip-rule="evenodd" d="M15.5547 7C13.1797 7 11.25 8.86719 11.25 11.1641C11.25 13.4688 15.5547 20 15.5547 20C15.5547 20 19.8594 13.4688 19.8594 11.1641C19.8516 8.86719 17.9297 7 15.5547 7ZM15.5547 13.25C14.4766 13.25 13.6016 12.375 13.6016 11.2969C13.6016 10.2188 14.4766 9.34375 15.5547 9.34375C16.6328 9.34375 17.5078 10.2188 17.5078 11.2969C17.5078 12.375 16.6328 13.25 15.5547 13.25Z" fill="#5F6B7C"/>
<path d="M0 7.5C0 3.35625 3.35625 0 7.5 0C11.1457 0 14.1818 2.59792 14.859 6.04439C14.2161 6.127 13.607 6.32247 13.0548 6.61047C12.6276 3.92896 10.3005 1.875 7.5 1.875C4.39687 1.875 1.875 4.39687 1.875 7.5C1.875 10.6031 4.39687 13.125 7.5 13.125C8.57043 13.125 9.5717 12.8249 10.4242 12.3044C10.5647 12.8302 10.776 13.3832 11.0043 13.9128C11.0298 13.972 11.0558 14.0316 11.0823 14.0915C10.018 14.6709 8.79764 15 7.5 15C3.35625 15 0 11.6437 0 7.5Z" fill="#5F6B7C"/>
<path d="M8.4375 3.93742V7.11562L10.0406 8.70937C10.2094 8.87812 10.3125 9.1125 10.3125 9.375C10.3125 9.89062 9.89062 10.3125 9.375 10.3125C9.1125 10.3125 8.87813 10.2094 8.70938 10.0406L6.83437 8.16562C6.66563 7.99687 6.5625 7.7625 6.5625 7.5V3.93742C6.5625 3.42179 6.98438 2.99992 7.5 2.99992C8.01562 2.99992 8.4375 3.42179 8.4375 3.93742Z" fill="#5F6B7C"/>
</svg>

<svg xmlns="http://www.w3.org/2000/svg" viewBox="0 0 20 20">
  <path d="M15.555 7c-2.375 0-4.305 1.867-4.305 4.164 0 2.305 4.305 8.836 4.305 8.836s4.304-6.531 4.304-8.836C19.852 8.867 17.93 7 15.555 7m0 6.25a1.954 1.954 0 1 1 .001-3.908 1.954 1.954 0 0 1-.001 3.908"/>
  <path d="M0 7.5C0 3.356 3.356 0 7.5 0a7.5 7.5 0 0 1 7.359 6.044 5.4 5.4 0 0 0-1.804.566A5.63 5.63 0 0 0 7.5 1.875 5.63 5.63 0 0 0 1.875 7.5 5.63 5.63 0 0 0 7.5 13.125c1.07 0 2.072-.3 2.924-.82.14.525.352 1.078.58 1.608l.078.178A7.5 7.5 0 0 1 7.5 15 7.5 7.5 0 0 1 0 7.5"/>
  <path d="M8.438 3.937v3.179l1.603 1.593A.94.94 0 0 1 8.71 10.04L6.833 8.167a.94.94 0 0 1-.271-.666V3.937A.94.94 0 0 1 7.5 3a.94.94 0 0 1 .938.937"/>
</svg>
